X: 8
T:Mairedelia
R:Reel
C:Ed Reavy
S:The Collected Compositions of Ed Reavy
M:2/2
L:1/8
Z:Joe Reavy
N:Mairedelia. Ed's granddaughter, who is
N:carrying on the tradition
N:herself. Maire has won several first
N:place fiddle medals in local
N:and New York area feises.
K:D
FG | Addc dcAF | FDA,D FGAB | [Dc]Bcd dAGA | d2 fd ^cAFA |
dcde (3fga ec | dcAF GE=CE | DEFG =cBAF | GE=CE D2 :|
fe | defg abaf | e=c (3cBc efge | defg adfa | gece d2 fg |
abaf efge | BecA GE=CE | DEFG dcAF | GE=CE D2 :|

composer: Ed Reavy
